X:77
T:Sarah's Birthday
R:reel
C:Paul S. Cranford
O:Cape Breton Island
S:http://www.cranfordpub.com
D:Brenda Stubbert Music All Around, 2003
B:Brenda Stubbert: the 2nd Collection
Z:psc, (re-formatted,updated 9/17/04)
N:
H:                                                        copyrights Cranford Publications, SOCAN
Q:333
L:1/8
M:C|
K:F
ABcA {A} d2 cA|BdcA BGGB|ABcA dbag|fcdB AFFB|
ABcA {A} d2 cA|BdcA BGGB|ABcA Bbag|fcde f2 f||
d|cfAc BGgf|egce fcAF|cfAc Bdgf|ecde f2 fd|
cfAc BGgf|egce fcAF|cfAc Bdgf|eceg fcdB|]
